Numix-Light/scalable/actions/document-export-symbolic.svg

<?xml version="1.0" encoding="UTF-8" standalone="no"?>
<svg
   xmlns:dc="http://purl.org/dc/elements/1.1/"
   xmlns:cc="http://creativecommons.org/ns#"
   xmlns:rdf="http://www.w3.org/1999/02/22-rdf-syntax-ns#"
   xmlns:svg="http://www.w3.org/2000/svg"
   xmlns="http://www.w3.org/2000/svg"
   xmlns:sodipodi="http://sodipodi.sourceforge.net/DTD/sodipodi-0.dtd"
   xmlns:inkscape="http://www.inkscape.org/namespaces/inkscape"
   viewBox="0 0 16 16"
   id="svg2719"
   version="1.1"
   inkscape:version="0.91 r"
   sodipodi:docname="document-export-symbolic.svg">
  <metadata
     id="metadata2727">
    <rdf:RDF>
      <cc:Work
         rdf:about="">
        <dc:format>image/svg+xml</dc:format>
        <dc:type
           rdf:resource="http://purl.org/dc/dcmitype/StillImage" />
      </cc:Work>
    </rdf:RDF>
  </metadata>
  <defs
     id="defs2725" />
  <sodipodi:namedview
     pagecolor="#ffffff"
     bordercolor="#666666"
     borderopacity="1"
     objecttolerance="10"
     gridtolerance="10"
     guidetolerance="10"
     inkscape:pageopacity="0"
     inkscape:pageshadow="2"
     inkscape:window-width="640"
     inkscape:window-height="480"
     id="namedview2723" />
  <path
     style="fill:#353535;color:#353535"
     d="m 10.000222,2.4998135 0,-2.44201997 6.074,4.51801997 -6.07389,4.499942 0,-2.575942 C 6.2339723,6.3547035 4.75273,8.6922235 8,10.999814 2.4739995,9.3330735 4.4074334,2.6809587 10.000222,2.4998135 z M 2,1 2,15 13,15 13,8.0625 12,8.8125 12,14 3,14 3,2 7.78125,2 C 8.1671756,1.8671234 8.5738448,1.7583878 9,1.6875 L 9,1 2,1 z M 12.90625,1 13,1.0625 13,1 12.90625,1 z"
     id="path2721" />
</svg>

<svg xmlns="http://www.w3.org/2000/svg" viewBox="0 0 16 16">
 <path d="m 10 2.5 0 -2.442 6.074 4.518 -6.074 4.5 0 -2.576 c -3.766 -0.145 -5.248 2.192 -2 4.5 -5.526 -1.667 -3.593 -8.319 2 -8.5 z m -8 -1.5 0 14 11 0 0 -6.938 -1 0.75 0 5.188 -9 0 0 -12 4.781 0 c 0.386 -0.133 0.793 -0.242 1.219 -0.313 l 0 -0.688 -7 0 z m 10.906 0 0.094 0.063 0 -0.063 -0.094 0 z" style="fill:#353535;color:#353535"/>
</svg>
